src/assets/duotone/Check.svg

<?xml version="1.0" encoding="UTF-8"?>
<svg width="24" height="24" viewBox="0 0 24 24" xmlns="http://www.w3.org/2000/svg">
 <path d="m15 22c-0.41 0-0.75-0.34-0.75-0.75v-18.5c0-0.41 0.34-0.75 0.75-0.75s0.75 0.34 0.75 0.75v18.5c0 0.41-0.34 0.75-0.75 0.75z"/>
 <path d="m6 20h6v-16h-6c-2.21 0-4 1.79-4 4v8c0 2.21 1.79 4 4 4z" opacity=".4"/>
 <path d="m18 20h-3v-16h3c2.21 0 4 1.79 4 4v8c0 2.21-1.79 4-4 4z" opacity=".4"/>
 <path d="m7 16.25c-0.41 0-0.75-0.34-0.75-0.75v-7c0-0.41 0.34-0.75 0.75-0.75s0.75 0.34 0.75 0.75v7c0 0.41-0.34 0.75-0.75 0.75z"/>
</svg>

<svg width="24" height="24" viewBox="0 0 24 24"  xmlns="http://www.w3.org/2000/svg">
<path d="M15 22C14.59 22 14.25 21.66 14.25 21.25V2.75C14.25 2.34 14.59 2 15 2C15.41 2 15.75 2.34 15.75 2.75V21.25C15.75 21.66 15.41 22 15 22Z" />
<path opacity="0.4" d="M6 20H12V4H6C3.79 4 2 5.79 2 8V16C2 18.21 3.79 20 6 20Z" />
<path opacity="0.4" d="M18 20H15V4H18C20.21 4 22 5.79 22 8V16C22 18.21 20.21 20 18 20Z" />
<path d="M7 16.25C6.59 16.25 6.25 15.91 6.25 15.5V8.5C6.25 8.09 6.59 7.75 7 7.75C7.41 7.75 7.75 8.09 7.75 8.5V15.5C7.75 15.91 7.41 16.25 7 16.25Z" />
</svg>
